;Generated by Cura LulzBot Edition GCodeWriter Version: 3.6.28
;FLAVOR:Marlin
;TIME:2725
;Filament used: 0.826572m
;Layer height: 0.2
;Generated with Cura_SteamEngine 3.6.28-2
M82 ;absolute extrusion mode
;This G-Code has been generated specifically for the LulzBot TAZ 6 with standard extruder
M73 P0 ; clear GLCD progress bar
M75 ; start GLCD timer
G26 ; clear potential 'probe fail' condition
M107 ; disable fans
M420 S0 ; disable previous leveling matrix
G90 ; absolute positioning
M82 ; set extruder to absolute mode
G92 E0 ; set extruder position to 0
M140 S75.0 ; start bed heating up
M109 R170 ; soften filament before homing Z
G28 ; Home all axis
G1 E-30 F100 ; retract filament
M109 R170 ; wait for extruder to reach wiping temp
G1 X-17 Y100 F3000 ; move above wiper pad
G1 Z1 ; push nozzle into wiper
G1 X-19 Y95 F1000 ; slow wipe
G1 X-19 Y90 F1000 ; slow wipe
G1 X-19 Y85 F1000 ; slow wipe
G1 X-17 Y90 F1000 ; slow wipe
G1 X-19 Y80 F1000 ; slow wipe
G1 X-17 Y95 F1000 ; slow wipe
G1 X-17 Y75 F2000 ; fast wipe
G1 X-17 Y65 F2000 ; fast wipe
G1 X-19 Y70 F2000 ; fast wipe
G1 X-17 Y60 F2000 ; fast wipe
G1 X-19 Y55 F2000 ; fast wipe
G1 X-17 Y50 F2000 ; fast wipe
G1 X-19 Y40 F2000 ; fast wipe
G1 X-17 Y45 F2000 ; fast wipe
G1 X-19 Y35 F2000 ; fast wipe
G1 X-17 Y40 F2000 ; fast wipe
G1 X-19 Y70 F2000 ; fast wipe
G1 X-17 Y30 Z2 F2000 ; fast wipe
G1 X-19 Y35 F2000 ; fast wipe
G1 X-17 Y25 F2000 ; fast wipe
G1 X-19 Y30 F2000 ; fast wipe
G1 X-17 Y25 Z1.5 F1000 ; slow wipe
G1 X-19 Y23 F1000 ; slow wipe
G1 Z10 ; raise extruder
M109 R170 ; wait for extruder to reach probe temp
G1 X-10 Y293 F4000 ; move above first probe point
M204 S100 ; set probing acceleration
G29 ; start auto-leveling sequence
M420 S1 ; activate bed level matrix
M425 Z			     ; use measured Z backlash for compensation
M425 Z F0		     ; turn off measured Z backlash compensation. (if activated in the quality settings, this command will automatically be ignored)
M204 S500 ; restore standard acceleration
G1 X0 Y0 Z15 F5000 ; move up off last probe point
G4 S1 ; pause
M400 ; wait for moves to finish
M117 Heating... ; progress indicator message on LCD
M109 R235 ; wait for extruder to reach printing temp
M190 R75.0 ; wait for bed to reach printing temp
G1 Z2 E0 F75 ; prime tiny bit of filament into the nozzle
M117 TAZ 6 Printing... ; progress indicator message on LCD

M221 S100 T0
G92 E0
G1 F600 E-1
;LAYER_COUNT:40
;LAYER:0
M107
G0 F1200 X114.286 Y114.87 Z0.3
;TYPE:SKIRT
G1 F600 E0
G1 X115.24 Y113.954 E0.0311
G1 X115.777 Y113.494 E0.04772
G1 X116.316 Y113.126 E0.06307
G1 X117 Y112.709 E0.08191
G1 X117.874 Y112.265 E0.10496
G1 X118.581 Y111.974 E0.12293
G1 X119.499 Y111.677 E0.14562
G1 X120.256 Y111.495 E0.16393
G1 X120.951 Y111.369 E0.18053
G1 X121.384 Y111.331 E0.19075
G1 X122.735 Y111.259 E0.22257
G1 X123.073 Y111.25 E0.23052
G1 X157.804 Y111.277 E1.04715
G1 X158.62 Y111.331 E1.06638
G1 X159.352 Y111.428 E1.08374
G1 X160.046 Y111.56 E1.10035
G1 X160.59 Y111.723 E1.11371
G1 X161.831 Y112.156 E1.14461
G1 X162.484 Y112.426 E1.16123
G1 X163.103 Y112.768 E1.17786
G1 X163.452 Y113.005 E1.18778
G1 X164.708 Y113.92 E1.22431
G1 X165.255 Y114.368 E1.24094
G1 X165.78 Y114.912 E1.25872
G1 X166.29 Y115.509 E1.27718
G1 X166.864 Y116.299 E1.30014
G1 X167.268 Y116.957 E1.31829
G1 X167.715 Y117.833 E1.34142
G1 X168.019 Y118.566 E1.36008
G1 X168.322 Y119.497 E1.3831
G1 X168.504 Y120.253 E1.40138
G1 X168.631 Y120.949 E1.41802
G1 X168.669 Y121.384 E1.42828
G1 X168.741 Y122.736 E1.46012
G1 X168.75 Y123.073 E1.46805
G1 X168.723 Y157.804 E2.28468
G1 X168.67 Y158.61 E2.30367
G1 X168.576 Y159.328 E2.3207
G1 X168.445 Y160.023 E2.33733
G1 X168.281 Y160.575 E2.35087
G1 X167.841 Y161.837 E2.3823
G1 X167.571 Y162.49 E2.39891
G1 X167.261 Y163.056 E2.41408
G1 X166.857 Y163.712 E2.4322
G1 X166.453 Y164.292 E2.44882
G1 X166.178 Y164.619 E2.45887
G1 X165.512 Y165.358 E2.48226
G1 X165.01 Y165.856 E2.49888
G1 X164.456 Y166.292 E2.51546
G1 X163.363 Y167.058 E2.54684
G1 X162.762 Y167.43 E2.56346
G1 X162.123 Y167.733 E2.58009
G1 X161.718 Y167.881 E2.59023
G1 X160.225 Y168.369 E2.62716
G1 X159.542 Y168.55 E2.64378
G1 X158.616 Y168.669 E2.66573
G1 X157.265 Y168.741 E2.69754
G1 X156.927 Y168.75 E2.70549
G1 X122.196 Y168.723 E3.52213
G1 X121.38 Y168.669 E3.54136
G1 X120.648 Y168.572 E3.55872
G1 X119.954 Y168.44 E3.57533
G1 X119.403 Y168.275 E3.58885
G1 X118.161 Y167.84 E3.6198
G1 X117.508 Y167.569 E3.63642
G1 X116.803 Y167.17 E3.65547
G1 X115.954 Y166.614 E3.67933
G1 X115.385 Y166.194 E3.69596
G1 X114.868 Y165.712 E3.71258
G1 X113.949 Y164.754 E3.74379
G1 X113.489 Y164.217 E3.76042
G1 X113.131 Y163.694 E3.77532
G1 X112.727 Y163.035 E3.7935
G1 X112.28 Y162.158 E3.81664
G1 X111.977 Y161.426 E3.83527
G1 X111.674 Y160.493 E3.85834
G1 X111.493 Y159.738 E3.87659
G1 X111.34 Y158.768 E3.89968
G1 X111.278 Y157.974 E3.91841
G1 X111.259 Y157.487 E3.92987
G1 X111.26 Y122.5 E4.75252
G1 X111.298 Y121.813 E4.7687
G1 X111.412 Y120.782 E4.79309
G1 X111.529 Y120.085 E4.80971
G1 X111.727 Y119.397 E4.82654
G1 X112.168 Y118.142 E4.85782
G1 X112.44 Y117.489 E4.87445
G1 X112.844 Y116.779 E4.89366
G1 X113.394 Y115.943 E4.91719
G1 X113.815 Y115.375 E4.93382
G1 X114.286 Y114.87 E4.95005
G0 F1200 X114.633 Y115.23
G1 F600 X115.587 Y114.314 E4.98115
G1 X116.102 Y113.874 E4.99708
G1 X116.576 Y113.552 E5.01055
G1 X117.26 Y113.135 E5.02939
G1 X118.064 Y112.728 E5.05058
G1 X118.771 Y112.437 E5.06855
G1 X119.616 Y112.163 E5.08944
G1 X120.373 Y111.981 E5.10775
G1 X121.04 Y111.862 E5.12368
G1 X121.411 Y111.83 E5.13243
G1 X122.762 Y111.758 E5.16425
G1 X123.072 Y111.75 E5.17154
G1 X157.803 Y111.777 E5.98817
G1 X158.554 Y111.827 E6.00587
G1 X159.286 Y111.924 E6.02323
G1 X159.952 Y112.052 E6.03918
G1 X160.425 Y112.195 E6.0508
G1 X161.666 Y112.628 E6.0817
G1 X162.292 Y112.889 E6.09765
G1 X163.158 Y113.409 E6.1214
G1 X164.414 Y114.324 E6.15794
G1 X164.937 Y114.755 E6.17388
G1 X165.4 Y115.237 E6.18959
G1 X165.91 Y115.834 E6.20805
G1 X166.438 Y116.56 E6.22916
G1 X166.842 Y117.218 E6.24732
G1 X167.253 Y118.024 E6.26859
G1 X167.557 Y118.757 E6.28725
G1 X167.836 Y119.614 E6.30844
G1 X168.018 Y120.37 E6.32672
G1 X168.138 Y121.038 E6.34268
G1 X168.17 Y121.41 E6.35146
G1 X168.242 Y122.762 E6.3833
G1 X168.25 Y123.072 E6.39059
G1 X168.223 Y157.803 E7.20722
G1 X168.174 Y158.545 E7.22471
G1 X168.08 Y159.263 E7.24174
G1 X167.953 Y159.929 E7.25768
G1 X167.808 Y160.41 E7.26949
G1 X167.368 Y161.672 E7.30092
G1 X167.108 Y162.298 E7.31685
G1 X166.835 Y162.794 E7.33017
G1 X166.431 Y163.45 E7.34828
G1 X166.042 Y164.006 E7.36424
G1 X165.806 Y164.284 E7.37281
G1 X165.14 Y165.023 E7.3962
G1 X164.658 Y165.499 E7.41213
G1 X164.169 Y165.883 E7.42675
G1 X163.076 Y166.649 E7.45813
G1 X162.499 Y167.004 E7.47406
G1 X161.884 Y167.29 E7.49001
G1 X161.562 Y167.405 E7.49805
G1 X160.069 Y167.893 E7.53498
G1 X159.414 Y168.066 E7.55091
G1 X158.589 Y168.17 E7.57046
G1 X157.238 Y168.242 E7.60228
G1 X156.928 Y168.25 E7.60957
G1 X122.197 Y168.223 E8.4262
G1 X121.446 Y168.173 E8.4439
G1 X120.714 Y168.076 E8.46126
G1 X120.048 Y167.948 E8.47721
G1 X119.568 Y167.803 E8.489
G1 X118.326 Y167.368 E8.51994
G1 X117.701 Y167.106 E8.53588
G1 X117.077 Y166.751 E8.55276
G1 X116.228 Y166.195 E8.57662
G1 X115.684 Y165.791 E8.59255
G1 X115.229 Y165.366 E8.60719
G1 X114.31 Y164.408 E8.63841
G1 X113.87 Y163.891 E8.65437
G1 X113.557 Y163.432 E8.66743
G1 X113.153 Y162.773 E8.68561
G1 X112.742 Y161.967 E8.70688
G1 X112.439 Y161.235 E8.72551
G1 X112.16 Y160.376 E8.74675
G1 X111.979 Y159.621 E8.765
G1 X111.838 Y158.729 E8.78624
G1 X111.776 Y157.935 E8.80496
G1 X111.759 Y157.487 E8.8155
G1 X111.76 Y122.5 E9.63816
G1 X111.795 Y121.868 E9.65304
G1 X111.909 Y120.837 E9.67743
G1 X112.023 Y120.169 E9.69337
G1 X112.199 Y119.563 E9.7082
G1 X112.64 Y118.308 E9.73948
G1 X112.902 Y117.683 E9.75542
G1 X113.261 Y117.054 E9.77245
G1 X113.811 Y116.218 E9.79598
G1 X114.217 Y115.674 E9.81194
G1 X114.633 Y115.23 E9.82624
G0 F1200 X114.979 Y115.591
G1 F600 X115.933 Y114.675 E9.85734
G1 X116.427 Y114.256 E9.87257
G1 X116.836 Y113.979 E9.88419
G1 X117.52 Y113.562 E9.90302
G1 X118.255 Y113.19 E9.92239
G1 X118.962 Y112.899 E9.94037
G1 X119.733 Y112.649 E9.95943
G1 X120.49 Y112.467 E9.97773
G1 X121.438 Y112.329 E10.00026
G1 X122.789 Y112.257 E10.03207
G1 X123.072 Y112.25 E10.03873
G1 X157.803 Y112.277 E10.85536
G1 X158.489 Y112.322 E10.87153
G1 X159.221 Y112.419 E10.88889
G1 X159.856 Y112.544 E10.90411
G1 X160.261 Y112.667 E10.91406
G1 X161.502 Y113.1 E10.94497
G1 X162.099 Y113.351 E10.96019
G1 X162.863 Y113.814 E10.9812
G1 X164.119 Y114.729 E11.01774
G1 X164.618 Y115.142 E11.03297
G1 X165.02 Y115.562 E11.04664
G1 X165.53 Y116.159 E11.0651
G1 X166.012 Y116.822 E11.08437
G1 X166.416 Y117.48 E11.10253
G1 X166.791 Y118.216 E11.12195
G1 X167.095 Y118.949 E11.14061
G1 X167.35 Y119.731 E11.15995
G1 X167.532 Y120.487 E11.17823
G1 X167.671 Y121.437 E11.20081
G1 X167.743 Y122.789 E11.23264
G1 X167.75 Y123.072 E11.2393
G1 X167.723 Y157.803 E12.05594
G1 X167.679 Y158.481 E12.07191
G1 X167.585 Y159.199 E12.08894
G1 X167.461 Y159.834 E12.10415
G1 X167.336 Y160.245 E12.11425
G1 X166.896 Y161.507 E12.14568
G1 X166.646 Y162.105 E12.16092
G1 X166.409 Y162.532 E12.1724
G1 X166.005 Y163.188 E12.19052
G1 X165.435 Y163.95 E12.21289
G1 X164.769 Y164.689 E12.23628
G1 X164.306 Y165.142 E12.25151
G1 X163.882 Y165.473 E12.26416
G1 X162.789 Y166.239 E12.29555
G1 X162.237 Y166.578 E12.31078
G1 X161.407 Y166.93 E12.33198
G1 X159.914 Y167.418 E12.36891
G1 X159.287 Y167.581 E12.38414
G1 X158.562 Y167.671 E12.40132
G1 X157.211 Y167.743 E12.43313
G1 X156.928 Y167.75 E12.43979
G1 X122.197 Y167.723 E13.25642
G1 X121.511 Y167.678 E13.27259
G1 X120.779 Y167.581 E13.28995
G1 X120.144 Y167.456 E13.30517
G1 X119.734 Y167.331 E13.31525
G1 X118.492 Y166.896 E13.34619
G1 X117.895 Y166.644 E13.36143
G1 X117.351 Y166.333 E13.37616
G1 X116.502 Y165.777 E13.40002
G1 X115.983 Y165.389 E13.41526
G1 X115.589 Y165.019 E13.42797
G1 X114.67 Y164.061 E13.45918
G1 X114.252 Y163.567 E13.4744
G1 X113.983 Y163.171 E13.48565
G1 X113.579 Y162.512 E13.50383
G1 X113.204 Y161.776 E13.52325
G1 X112.901 Y161.044 E13.54188
G1 X112.647 Y160.26 E13.56126
G1 X112.466 Y159.505 E13.57951
G1 X112.337 Y158.69 E13.59891
G1 X112.275 Y157.896 E13.61764
G1 X112.259 Y157.487 E13.62727
G1 X112.26 Y122.5 E14.44992
G1 X112.292 Y121.923 E14.46351
G1 X112.406 Y120.892 E14.4879
G1 X112.517 Y120.254 E14.50313
G1 X112.671 Y119.729 E14.51599
G1 X113.112 Y118.474 E14.54727
G1 X113.364 Y117.877 E14.56251
G1 X113.679 Y117.329 E14.57737
G1 X114.229 Y116.493 E14.6009
G1 X114.618 Y115.974 E14.61615
G1 X114.979 Y115.591 E14.62852
G1 F600 E13.62852
;MESH:
G0 F1200 X117.988 Y119.086
G0 X119.079 Y120.014
G0 X118.755 Y121.444
G0 X118.707 Y122
G0 X118.755 Y122.556
G0 X118.896 Y123.097
G0 X119.126 Y123.605
G0 X119.438 Y124.069
G0 X119.75 Y124.394
G0 X120.75 Y125.111
G0 X120.787 Y125.019
;TYPE:WALL-INNER
G1 F600 E14.62852
G1 X121.314 Y125.179 E14.64147
G1 X121.861 Y125.25 E14.65444
G1 X122.414 Y125.227 E14.66746
G1 X122.953 Y125.11 E14.68043
G1 X123.465 Y124.904 E14.6934
G1 X123.934 Y124.616 E14.70634
G1 X124.349 Y124.251 E14.71934
G1 X124.695 Y123.821 E14.73232
G1 X124.964 Y123.34 E14.74527
G1 X125.148 Y122.819 E14.75827
G1 X125.241 Y122.276 E14.77122
G1 X125.241 Y121.724 E14.7842
G1 X125.148 Y121.181 E14.79715
G1 X124.964 Y120.66 E14.81014
G1 X124.695 Y120.179 E14.8231
G1 X124.349 Y119.749 E14.83608
G1 X123.934 Y119.384 E14.84908
G1 X123.465 Y119.096 E14.86202
G1 X122.953 Y118.89 E14.87499
G1 X122.414 Y118.773 E14.88796
G1 X122.308 Y118.768 E14.89046
G1 X121.861 Y118.75 E14.90098
G1 X121.314 Y118.821 E14.91395
G1 X121.301 Y118.825 E14.91426
G1 X120.787 Y118.981 E14.9269
G1 X120.721 Y119.014 E14.92863
G1 X120.295 Y119.23 E14.93986
G1 X120.186 Y119.31 E14.94304
G1 X119.85 Y119.558 E14.95286
G1 X119.712 Y119.702 E14.95755
G1 X119.469 Y119.956 E14.96581
G1 X119.321 Y120.176 E14.97205
G1 X119.16 Y120.414 E14.97881
G1 X119.027 Y120.709 E14.98641
G1 X118.933 Y120.916 E14.99176
G1 X118.837 Y121.287 E15.00077
G1 X118.794 Y121.45 E15.00473
G1 X118.758 Y121.876 E15.01479
G1 X118.747 Y122 E15.01771
G1 X118.77 Y122.275 E15.0242
G1 X118.794 Y122.55 E15.03069
G1 X118.933 Y123.084 E15.04367
G1 X119.16 Y123.586 E15.05662
G1 X119.469 Y124.044 E15.06961
G1 X119.85 Y124.442 E15.08257
G1 X120.295 Y124.77 E15.09557
G1 X120.787 Y125.019 E15.10853
G0 F1200 X120.75 Y125.111
G0 X118.707 Y158
G0 X118.755 Y158.556
G0 X118.896 Y159.097
G0 X119.126 Y159.605
G0 X119.438 Y160.069
G0 X119.824 Y160.472
G0 X120.188 Y160.74
G0 X121.293 Y161.276
G0 X121.314 Y161.179
G1 F600 X121.861 Y161.25 E15.1215
G1 X122.308 Y161.232 E15.13202
G1 X122.414 Y161.227 E15.13452
G1 X122.953 Y161.11 E15.14748
G1 X123.465 Y160.904 E15.16046
G1 X123.934 Y160.616 E15.1734
G1 X124.349 Y160.251 E15.1864
G1 X124.695 Y159.821 E15.19937
G1 X124.964 Y159.34 E15.21233
G1 X125.148 Y158.819 E15.22532
G1 X125.241 Y158.276 E15.23828
G1 X125.241 Y157.724 E15.25126
G1 X125.148 Y157.181 E15.26421
G1 X124.964 Y156.66 E15.2772
G1 X124.695 Y156.179 E15.29016
G1 X124.349 Y155.749 E15.30314
G1 X123.934 Y155.384 E15.31613
G1 X123.465 Y155.096 E15.32907
G1 X122.953 Y154.89 E15.34205
G1 X122.414 Y154.773 E15.35502
G1 X121.861 Y154.75 E15.36803
G1 X121.314 Y154.821 E15.381
G1 X120.787 Y154.981 E15.39395
G1 X120.295 Y155.23 E15.40692
G1 X119.85 Y155.558 E15.41992
G1 X119.469 Y155.956 E15.43287
G1 X119.16 Y156.414 E15.44586
G1 X118.933 Y156.916 E15.45882
G1 X118.794 Y157.45 E15.47179
G1 X118.771 Y157.72 E15.47816
G1 X118.747 Y158 E15.48477
G1 X118.757 Y158.122 E15.48765
G1 X118.794 Y158.55 E15.49775
G1 X118.836 Y158.712 E15.50169
G1 X118.933 Y159.084 E15.51073
G1 X119.026 Y159.291 E15.51606
G1 X119.16 Y159.586 E15.52368
G1 X119.32 Y159.823 E15.5304
G1 X119.469 Y160.044 E15.53667
G1 X119.712 Y160.297 E15.54492
G1 X119.85 Y160.442 E15.54963
G1 X120.186 Y160.689 E15.55943
G1 X120.295 Y160.77 E15.56262
G1 X120.72 Y160.985 E15.57382
G1 X120.787 Y161.019 E15.57559
G1 X121.3 Y161.174 E15.58819
G1 X121.314 Y161.179 E15.58854
G0 F1200 X121.293 Y161.276
G0 X122.419 Y161.266
G0 X122.964 Y161.148
G0 X145.28 Y154.35
G0 X147.073 Y153.557
G0 X148.748 Y152.54
G0 X150.279 Y151.319
G0 X151.643 Y149.911
G0 X152.815 Y148.341
G0 X153.777 Y146.634
G0 X154.37 Y145.164
G0 X155.069 Y142.935
G0 X154.971 Y142.916
G1 F600 X155.218 Y140.991 E15.63417
G1 X155.225 Y140.803 E15.6386
G1 X155.22 Y139.022 E15.68048
G1 X154.971 Y137.084 E15.72642
G1 X154.474 Y135.194 E15.77237
G1 X153.741 Y133.383 E15.81831
G1 X152.782 Y131.68 E15.86426
G1 X151.613 Y130.114 E15.91021
G1 X150.253 Y128.71 E15.95617
G1 X148.726 Y127.492 E16.0021
G1 X147.055 Y126.478 E16.04806
G1 X145.267 Y125.687 E16.09403
G1 X143.394 Y125.132 E16.13996
G1 X141.464 Y124.819 E16.18594
G1 X139.511 Y124.756 E16.23188
G1 X137.566 Y124.944 E16.27783
G1 X135.66 Y125.379 E16.3238
G1 X133.827 Y126.054 E16.36973
G1 X132.093 Y126.957 E16.4157
G1 X130.491 Y128.075 E16.46163
G1 X129.044 Y129.39 E16.5076
G1 X127.777 Y130.877 E16.55354
G1 X126.711 Y132.516 E16.59951
G1 X125.864 Y134.277 E16.64546
G1 X125.247 Y136.131 E16.6914
G1 X124.874 Y138.05 E16.73737
G1 X124.748 Y140 E16.78332
G1 X124.874 Y141.95 E16.82926
G1 X125.247 Y143.869 E16.87523
G1 X125.864 Y145.723 E16.92117
G1 X126.711 Y147.484 E16.96712
G1 X127.777 Y149.123 E17.01309
G1 X129.044 Y150.61 E17.05903
G1 X130.491 Y151.925 E17.105
G1 X132.093 Y153.043 E17.15093
G1 X133.827 Y153.946 E17.1969
G1 X135.66 Y154.621 E17.24283
G1 X137.566 Y155.056 E17.2888
G1 X139.511 Y155.244 E17.33475
G1 X141.464 Y155.181 E17.38069
G1 X143.394 Y154.868 E17.42667
G1 X145.267 Y154.313 E17.4726
G1 X147.055 Y153.522 E17.51857
