;Generated by Cura LulzBot Edition GCodeWriter Version: 3.6.28
;FLAVOR:Marlin
;TIME:729
;Filament used: 0.171543m
;Layer height: 0.2
;Generated with Cura_SteamEngine 3.6.28-2
M82 ;absolute extrusion mode
;This G-Code has been generated specifically for the LulzBot TAZ 6 with standard extruder
M73 P0 ; clear GLCD progress bar
M75 ; start GLCD timer
G26 ; clear potential 'probe fail' condition
M107 ; disable fans
M420 S0 ; disable previous leveling matrix
G90 ; absolute positioning
M82 ; set extruder to absolute mode
G92 E0 ; set extruder position to 0
M140 S75.0 ; start bed heating up
M109 R170 ; soften filament before homing Z
G28 ; Home all axis
G1 E-30 F100 ; retract filament
M109 R170 ; wait for extruder to reach wiping temp
G1 X-17 Y100 F3000 ; move above wiper pad
G1 Z1 ; push nozzle into wiper
G1 X-19 Y95 F1000 ; slow wipe
G1 X-19 Y90 F1000 ; slow wipe
G1 X-19 Y85 F1000 ; slow wipe
G1 X-17 Y90 F1000 ; slow wipe
G1 X-19 Y80 F1000 ; slow wipe
G1 X-17 Y95 F1000 ; slow wipe
G1 X-17 Y75 F2000 ; fast wipe
G1 X-17 Y65 F2000 ; fast wipe
G1 X-19 Y70 F2000 ; fast wipe
G1 X-17 Y60 F2000 ; fast wipe
G1 X-19 Y55 F2000 ; fast wipe
G1 X-17 Y50 F2000 ; fast wipe
G1 X-19 Y40 F2000 ; fast wipe
G1 X-17 Y45 F2000 ; fast wipe
G1 X-19 Y35 F2000 ; fast wipe
G1 X-17 Y40 F2000 ; fast wipe
G1 X-19 Y70 F2000 ; fast wipe
G1 X-17 Y30 Z2 F2000 ; fast wipe
G1 X-19 Y35 F2000 ; fast wipe
G1 X-17 Y25 F2000 ; fast wipe
G1 X-19 Y30 F2000 ; fast wipe
G1 X-17 Y25 Z1.5 F1000 ; slow wipe
G1 X-19 Y23 F1000 ; slow wipe
G1 Z10 ; raise extruder
M109 R170 ; wait for extruder to reach probe temp
G1 X-10 Y293 F4000 ; move above first probe point
M204 S100 ; set probing acceleration
G29 ; start auto-leveling sequence
M420 S1 ; activate bed level matrix
M425 Z			     ; use measured Z backlash for compensation
M425 Z F0		     ; turn off measured Z backlash compensation. (if activated in the quality settings, this command will automatically be ignored)
M204 S500 ; restore standard acceleration
G1 X0 Y0 Z15 F5000 ; move up off last probe point
G4 S1 ; pause
M400 ; wait for moves to finish
M117 Heating... ; progress indicator message on LCD
M109 R235 ; wait for extruder to reach printing temp
M190 R75.0 ; wait for bed to reach printing temp
G1 Z2 E0 F75 ; prime tiny bit of filament into the nozzle
M117 TAZ 6 Printing... ; progress indicator message on LCD

M221 S100 T0
G92 E0
G1 F600 E-1
;LAYER_COUNT:58
;LAYER:0
M107
G0 F1200 X130.732 Y130.579 Z0.3
;TYPE:SKIRT
G1 F600 E0
G1 X131.266 Y130.074 E0.01728
G1 X131.706 Y129.732 E0.03038
G1 X132.555 Y129.126 E0.05491
G1 X133.176 Y128.732 E0.0722
G1 X133.72 Y128.459 E0.08652
G1 X134.976 Y127.897 E0.11887
G1 X135.662 Y127.634 E0.13614
G1 X136.455 Y127.43 E0.1554
G1 X137.917 Y127.148 E0.19041
G1 X138.644 Y127.048 E0.20766
G1 X139.233 Y127.026 E0.22152
G1 X140.125 Y127.031 E0.2425
G1 X141.112 Y127.109 E0.26578
G1 X142.16 Y127.27 E0.29071
G1 X142.879 Y127.421 E0.30798
G1 X143.256 Y127.534 E0.31724
G1 X144.138 Y127.826 E0.33908
G1 X145.13 Y128.245 E0.3644
G1 X146.119 Y128.759 E0.39061
G1 X146.751 Y129.132 E0.40786
G1 X147.273 Y129.518 E0.42313
G1 X148.375 Y130.417 E0.45657
G1 X148.918 Y130.911 E0.47383
G1 X149.199 Y131.214 E0.48355
G1 X149.664 Y131.748 E0.5002
G1 X150.227 Y132.494 E0.52217
G1 X150.75 Y133.296 E0.54468
G1 X151.253 Y134.216 E0.56934
G1 X151.693 Y135.195 E0.59458
G1 X151.957 Y135.88 E0.61184
G1 X152.121 Y136.477 E0.6264
G1 X152.425 Y137.825 E0.65889
G1 X152.547 Y138.549 E0.67615
G1 X152.59 Y139.356 E0.69515
G1 X152.58 Y140.811 E0.72937
G1 X152.535 Y141.545 E0.74666
G1 X152.409 Y142.276 E0.7641
G1 X152.119 Y143.539 E0.79457
G1 X151.916 Y144.245 E0.81184
G1 X151.637 Y144.925 E0.82912
G1 X151.034 Y146.194 E0.86216
G1 X150.683 Y146.839 E0.87942
G1 X150.138 Y147.6 E0.90143
G1 X149.094 Y148.862 E0.93995
G1 X148.596 Y149.401 E0.9572
G1 X148.068 Y149.863 E0.9737
G1 X147.203 Y150.544 E0.99958
G1 X146.602 Y150.966 E1.01685
G1 X145.975 Y151.313 E1.0337
G1 X144.621 Y151.97 E1.06909
G1 X143.943 Y152.254 E1.08637
G1 X143.376 Y152.429 E1.10032
G1 X142.482 Y152.662 E1.12205
G1 X141.504 Y152.841 E1.14542
G1 X140.493 Y152.95 E1.16933
G1 X139.443 Y152.981 E1.19403
G1 X138.615 Y152.941 E1.21352
G1 X137.885 Y152.866 E1.23078
G1 X137.386 Y152.767 E1.24274
G1 X135.937 Y152.424 E1.27775
G1 X135.233 Y152.217 E1.29501
G1 X134.453 Y151.883 E1.31496
G1 X133.174 Y151.238 E1.34864
G1 X132.537 Y150.872 E1.36591
G1 X132.052 Y150.526 E1.37992
G1 X131.2 Y149.859 E1.40536
G1 X130.647 Y149.375 E1.42264
G1 X130.36 Y149.077 E1.43237
G1 X129.731 Y148.383 E1.4544
G1 X129.079 Y147.538 E1.47949
G1 X128.469 Y146.603 E1.50574
G1 X128.101 Y145.967 E1.52302
G1 X127.805 Y145.295 E1.54028
G1 X127.584 Y144.594 E1.55757
G1 X127.44 Y143.874 E1.57483
G1 X127.372 Y142.859 E1.59875
G1 X127.421 Y136.94 E1.73793
G1 X127.467 Y136.207 E1.7552
G1 X127.593 Y135.483 E1.77248
G1 X127.796 Y134.777 E1.78975
G1 X128.075 Y134.098 E1.80701
G1 X128.512 Y133.317 E1.82806
G1 X128.997 Y132.571 E1.84898
G1 X129.43 Y131.978 E1.86624
G1 X129.76 Y131.603 E1.87799
G1 X130.732 Y130.579 E1.91118
G0 F1200 X131.095 Y130.923
G1 F600 X131.61 Y130.439 E1.9278
G1 X131.997 Y130.139 E1.93932
G1 X132.846 Y129.533 E1.96384
G1 X133.444 Y129.155 E1.98048
G1 X133.924 Y128.915 E1.9931
G1 X135.18 Y128.353 E2.02545
G1 X135.841 Y128.101 E2.04208
G1 X136.549 Y127.921 E2.05926
G1 X138.011 Y127.639 E2.09427
G1 X138.712 Y127.545 E2.1109
G1 X139.23 Y127.526 E2.12309
G1 X140.122 Y127.531 E2.14406
G1 X141.036 Y127.603 E2.16562
G1 X142.084 Y127.764 E2.19055
G1 X143.099 Y128.009 E2.2151
G1 X143.981 Y128.301 E2.23695
G1 X144.899 Y128.688 E2.26037
G1 X145.888 Y129.202 E2.28658
G1 X146.496 Y129.563 E2.30321
G1 X146.957 Y129.905 E2.3167
G1 X148.059 Y130.804 E2.35014
G1 X148.58 Y131.281 E2.36675
G1 X148.821 Y131.543 E2.37512
G1 X149.286 Y132.077 E2.39177
G1 X149.808 Y132.767 E2.41212
G1 X150.331 Y133.569 E2.43463
G1 X150.797 Y134.421 E2.45746
G1 X151.237 Y135.4 E2.4827
G1 X151.49 Y136.06 E2.49932
G1 X151.633 Y136.587 E2.51216
G1 X151.937 Y137.935 E2.54465
G1 X152.053 Y138.632 E2.56127
G1 X152.09 Y139.353 E2.57824
G1 X152.08 Y140.808 E2.61245
G1 X152.035 Y141.513 E2.62906
G1 X151.921 Y142.164 E2.6446
G1 X151.631 Y143.427 E2.67507
G1 X151.435 Y144.106 E2.69169
G1 X151.185 Y144.71 E2.70706
G1 X150.582 Y145.979 E2.7401
G1 X150.243 Y146.6 E2.75673
G1 X149.753 Y147.281 E2.77646
G1 X148.709 Y148.543 E2.81497
G1 X148.228 Y149.061 E2.83159
G1 X147.759 Y149.47 E2.84622
G1 X146.894 Y150.151 E2.87211
G1 X146.315 Y150.556 E2.88872
G1 X145.756 Y150.863 E2.90372
G1 X144.402 Y151.52 E2.93911
G1 X143.75 Y151.792 E2.95572
G1 X143.25 Y151.945 E2.96801
G1 X142.356 Y152.178 E2.98974
G1 X141.45 Y152.344 E3.01139
G1 X140.439 Y152.453 E3.0353
G1 X139.467 Y152.482 E3.05817
G1 X138.639 Y152.442 E3.07766
G1 X137.936 Y152.368 E3.09428
G1 X137.501 Y152.281 E3.10471
G1 X136.052 Y151.938 E3.13972
G1 X135.375 Y151.736 E3.15634
G1 X134.678 Y151.437 E3.17417
G1 X133.399 Y150.792 E3.20785
G1 X132.787 Y150.438 E3.22447
G1 X132.36 Y150.132 E3.23683
G1 X131.508 Y149.465 E3.26227
G1 X130.977 Y148.999 E3.27888
G1 X130.73 Y148.741 E3.28728
G1 X130.101 Y148.047 E3.3093
G1 X129.497 Y147.265 E3.33253
G1 X128.887 Y146.33 E3.35878
G1 X128.535 Y145.717 E3.3754
G1 X128.255 Y145.068 E3.39202
G1 X128.049 Y144.392 E3.40864
G1 X127.921 Y143.697 E3.42526
G1 X127.872 Y142.863 E3.4449
G1 X127.921 Y136.944 E3.58408
G1 X127.967 Y136.239 E3.60069
G1 X128.092 Y135.543 E3.61732
G1 X128.295 Y134.866 E3.63394
G1 X128.573 Y134.216 E3.65056
G1 X128.931 Y133.589 E3.66754
G1 X129.416 Y132.843 E3.68846
G1 X129.834 Y132.273 E3.70508
G1 X130.123 Y131.947 E3.71532
G1 X131.095 Y130.923 E3.74852
G0 F1200 X131.458 Y131.267
G1 F600 X131.953 Y130.804 E3.76446
G1 X132.287 Y130.546 E3.77438
G1 X133.136 Y129.94 E3.79891
G1 X133.71 Y129.579 E3.81485
G1 X134.129 Y129.371 E3.82585
G1 X135.385 Y128.809 E3.85821
G1 X136.019 Y128.57 E3.87414
G1 X136.644 Y128.412 E3.88929
G1 X138.106 Y128.13 E3.9243
G1 X138.778 Y128.041 E3.94024
G1 X139.227 Y128.026 E3.95081
G1 X140.119 Y128.031 E3.97178
G1 X140.96 Y128.098 E3.99162
G1 X142.008 Y128.259 E4.01655
G1 X142.942 Y128.483 E4.03913
G1 X143.824 Y128.775 E4.06098
G1 X144.669 Y129.132 E4.08255
G1 X145.658 Y129.646 E4.10876
G1 X146.24 Y129.993 E4.12469
G1 X146.641 Y130.293 E4.13646
G1 X147.743 Y131.192 E4.1699
G1 X148.444 Y131.871 E4.19285
G1 X148.909 Y132.405 E4.2095
G1 X149.389 Y133.04 E4.22822
G1 X149.912 Y133.842 E4.25073
G1 X150.341 Y134.626 E4.27174
G1 X150.781 Y135.605 E4.29698
G1 X151.022 Y136.239 E4.31293
G1 X151.145 Y136.697 E4.32408
G1 X151.449 Y138.045 E4.35657
G1 X151.559 Y138.714 E4.37251
G1 X151.59 Y139.35 E4.38748
G1 X151.58 Y140.805 E4.4217
G1 X151.535 Y141.481 E4.43763
G1 X151.434 Y142.052 E4.45126
G1 X151.144 Y143.315 E4.48173
G1 X150.954 Y143.965 E4.49765
G1 X150.733 Y144.496 E4.51118
G1 X150.13 Y145.765 E4.54421
G1 X149.804 Y146.359 E4.56015
G1 X149.367 Y146.962 E4.57766
G1 X148.323 Y148.224 E4.61617
G1 X147.861 Y148.72 E4.63211
G1 X147.45 Y149.077 E4.64491
G1 X146.585 Y149.758 E4.67079
G1 X146.028 Y150.145 E4.68674
G1 X145.538 Y150.413 E4.69987
G1 X144.184 Y151.07 E4.73526
G1 X143.558 Y151.33 E4.7512
G1 X143.124 Y151.461 E4.76186
G1 X142.23 Y151.694 E4.78358
G1 X141.396 Y151.847 E4.80352
G1 X140.385 Y151.956 E4.82743
G1 X139.492 Y151.982 E4.84843
G1 X138.664 Y151.942 E4.86792
G1 X137.99 Y151.87 E4.88386
G1 X137.616 Y151.794 E4.89284
G1 X136.167 Y151.451 E4.92785
G1 X135.518 Y151.257 E4.94378
G1 X134.903 Y150.99 E4.95954
G1 X133.624 Y150.345 E4.99322
G1 X133.038 Y150.005 E5.00915
G1 X132.669 Y149.739 E5.01985
G1 X131.817 Y149.072 E5.04529
G1 X131.101 Y148.405 E5.0683
G1 X130.472 Y147.711 E5.09032
G1 X129.916 Y146.992 E5.11169
G1 X129.306 Y146.057 E5.13794
G1 X128.97 Y145.468 E5.15389
G1 X128.705 Y144.844 E5.16983
G1 X128.516 Y144.193 E5.18577
G1 X128.404 Y143.524 E5.20171
G1 X128.372 Y142.867 E5.21718
G1 X128.421 Y136.948 E5.35636
G1 X128.467 Y136.272 E5.37229
G1 X128.592 Y135.606 E5.38823
G1 X128.794 Y134.959 E5.40416
G1 X129.071 Y134.34 E5.42011
G1 X129.35 Y133.862 E5.43312
G1 X129.835 Y133.116 E5.45404
G1 X130.238 Y132.57 E5.47
G1 X130.486 Y132.291 E5.47878
G1 X131.458 Y131.267 E5.51198
G0 F1200 X131.82 Y131.612
G1 F600 X132.294 Y131.17 E5.52721
G1 X132.578 Y130.953 E5.53562
G1 X133.427 Y130.347 E5.56014
G1 X133.976 Y130.004 E5.57537
G1 X134.333 Y129.828 E5.58472
G1 X135.589 Y129.266 E5.61708
G1 X136.195 Y129.038 E5.6323
G1 X136.739 Y128.903 E5.64548
G1 X138.201 Y128.621 E5.68049
G1 X138.843 Y128.538 E5.69571
G1 X139.224 Y128.526 E5.70468
G1 X140.116 Y128.531 E5.72565
G1 X140.884 Y128.592 E5.74377
G1 X141.932 Y128.753 E5.7687
G1 X142.785 Y128.958 E5.78932
G1 X143.667 Y129.25 E5.81117
G1 X144.438 Y129.576 E5.83085
G1 X145.427 Y130.09 E5.85706
G1 X145.982 Y130.423 E5.87228
G1 X146.325 Y130.68 E5.88236
G1 X147.427 Y131.579 E5.9158
G1 X148.067 Y132.199 E5.93675
G1 X148.532 Y132.733 E5.9534
G1 X148.971 Y133.313 E5.9705
G1 X149.494 Y134.115 E5.99301
G1 X149.885 Y134.831 E6.0122
G1 X150.325 Y135.81 E6.03743
G1 X150.553 Y136.416 E6.05266
G1 X150.657 Y136.807 E6.06217
G1 X150.961 Y138.155 E6.09466
G1 X151.065 Y138.795 E6.10991
G1 X151.09 Y139.346 E6.12288
G1 X151.08 Y140.801 E6.15709
G1 X151.035 Y141.447 E6.17232
G1 X150.947 Y141.94 E6.18409
G1 X150.657 Y143.203 E6.21456
G1 X150.473 Y143.824 E6.22979
G1 X150.282 Y144.281 E6.24144
G1 X149.679 Y145.55 E6.27447
G1 X149.365 Y146.117 E6.28971
G1 X148.982 Y146.643 E6.30501
G1 X147.938 Y147.905 E6.34352
G1 X147.495 Y148.378 E6.35876
G1 X147.141 Y148.684 E6.36976
G1 X146.276 Y149.365 E6.39565
G1 X145.743 Y149.734 E6.41089
G1 X145.32 Y149.963 E6.4222
G1 X143.966 Y150.62 E6.45759
G1 X143.367 Y150.867 E6.47282
G1 X142.998 Y150.977 E6.48188
G1 X142.104 Y151.21 E6.5036
G1 X141.343 Y151.35 E6.52179
G1 X140.332 Y151.459 E6.5457
G1 X139.516 Y151.483 E6.5649
G1 X138.688 Y151.443 E6.58439
G1 X137.732 Y151.308 E6.60709
G1 X136.283 Y150.965 E6.6421
G1 X135.663 Y150.777 E6.65734
G1 X135.128 Y150.544 E6.67106
G1 X133.849 Y149.899 E6.70474
G1 X133.29 Y149.572 E6.71997
G1 X132.977 Y149.345 E6.72906
G1 X132.125 Y148.678 E6.7545
G1 X131.471 Y148.07 E6.7755
G1 X130.842 Y147.376 E6.79752
G1 X130.335 Y146.719 E6.81703
G1 X129.725 Y145.784 E6.84328
G1 X129.405 Y145.22 E6.85853
G1 X129.157 Y144.622 E6.87375
G1 X128.985 Y143.997 E6.889
G1 X128.891 Y143.357 E6.9042
G1 X128.872 Y142.872 E6.91562
G1 X128.921 Y136.953 E7.0548
G1 X128.966 Y136.306 E7.07005
G1 X129.091 Y135.671 E7.08526
G1 X129.293 Y135.055 E7.10051
G1 X129.569 Y134.469 E7.11574
G1 X129.769 Y134.134 E7.12491
G1 X130.254 Y133.388 E7.14583
G1 X130.848 Y132.636 E7.16837
G1 X131.82 Y131.612 E7.20156
G1 F600 E6.20156
;MESH:
G0 F1200 X134.85 Y135.017
G0 X135.887 Y136.006
G0 X140.63 Y136.755
G0 X141.165 Y136.971
G0 X141.654 Y137.272
G0 X142.089 Y137.654
G0 X142.38 Y138.013
G0 X142.982 Y139.139
G0 X142.884 Y139.156
;TYPE:WALL-INNER
G1 F600 E7.20156
G1 X142.694 Y138.619 E7.21496
G1 X142.417 Y138.122 E7.22834
G1 X142.058 Y137.679 E7.24174
G1 X141.632 Y137.305 E7.25507
G1 X141.148 Y137.006 E7.26845
G1 X140.62 Y136.794 E7.28183
G1 X140.065 Y136.674 E7.29518
G1 X139.496 Y136.65 E7.30857
G1 X138.932 Y136.723 E7.32194
G1 X138.388 Y136.888 E7.33531
G1 X137.879 Y137.145 E7.34872
G1 X137.423 Y137.484 E7.36208
G1 X137.03 Y137.894 E7.37543
G1 X136.82 Y138.205 E7.38425
G1 X136.712 Y138.365 E7.38879
G1 X136.632 Y138.54 E7.39332
G1 X136.585 Y138.493
G1 X136.448 Y138.356 E7.39675
G1 X135.057 Y136.965 E7.443
G1 X135.085 Y136.919 E7.44427
G1 X135.46 Y136.427 E7.45881
G1 X135.879 Y135.987 E7.4731
G1 X136.348 Y135.594 E7.48749
G1 X136.848 Y135.263 E7.50159
G1 X137.388 Y134.983 E7.51589
G1 X137.96 Y134.765 E7.53028
G1 X138.554 Y134.609 E7.54472
G1 X139.142 Y134.524 E7.55869
G1 X139.766 Y134.502 E7.57337
G1 X140.361 Y134.549 E7.58741
G1 X140.955 Y134.66 E7.60162
G1 X141.544 Y134.842 E7.61611
G1 X142.105 Y135.085 E7.63049
G1 X142.633 Y135.387 E7.64479
G1 X143.117 Y135.741 E7.65889
G1 X143.563 Y136.149 E7.6731
G1 X143.973 Y136.616 E7.68771
G1 X144.316 Y137.11 E7.70185
G1 X144.61 Y137.649 E7.71629
G1 X144.838 Y138.209 E7.73051
G1 X145.001 Y138.784 E7.74456
G1 X145.104 Y139.395 E7.75913
G1 X145.137 Y140 E7.77338
G1 X145.104 Y140.605 E7.78762
G1 X145.001 Y141.216 E7.80219
G1 X144.838 Y141.791 E7.81625
G1 X144.61 Y142.351 E7.83046
G1 X144.316 Y142.89 E7.8449
G1 X143.973 Y143.384 E7.85904
G1 X143.563 Y143.851 E7.87365
G1 X143.117 Y144.259 E7.88786
G1 X142.633 Y144.613 E7.90196
G1 X142.105 Y144.915 E7.91627
G1 X141.544 Y145.158 E7.93064
G1 X140.955 Y145.34 E7.94514
G1 X140.361 Y145.451 E7.95935
G1 X139.766 Y145.498 E7.97338
G1 X139.142 Y145.476 E7.98806
G1 X138.554 Y145.391 E8.00203
G1 X137.96 Y145.235 E8.01647
G1 X137.388 Y145.017 E8.03086
G1 X136.848 Y144.737 E8.04517
G1 X136.348 Y144.406 E8.05927
G1 X135.879 Y144.013 E8.07365
G1 X135.46 Y143.573 E8.08794
G1 X135.085 Y143.081 E8.10249
G1 X135.057 Y143.035 E8.10375
G1 X136.447 Y141.645 E8.14997
G1 X136.584 Y141.508 E8.15453
G1 X136.632 Y141.46 E8.15612
G1 X136.712 Y141.635 E8.15847
G1 X136.82 Y141.795 E8.16189
G1 X137.03 Y142.106 E8.17072
G1 X137.423 Y142.516 E8.18407
G1 X137.879 Y142.855 E8.19743
G1 X138.388 Y143.112 E8.21084
G1 X138.932 Y143.277 E8.2242
G1 X139.496 Y143.35 E8.23758
G1 X140.065 Y143.326 E8.25097
G1 X140.62 Y143.206 E8.26432
G1 X141.148 Y142.994 E8.2777
G1 X141.632 Y142.695 E8.29107
G1 X142.058 Y142.321 E8.3044
G1 X142.417 Y141.878 E8.31781
G1 X142.694 Y141.381 E8.33119
G1 X142.884 Y140.844 E8.34458
G1 X142.976 Y140.298 E8.3576
G1 X142.988 Y140 E8.36461
G1 X142.976 Y139.702 E8.37163
G1 X142.884 Y139.156 E8.38465
G0 F1200 X142.982 Y139.139
G0 X143.015 Y140.299
G0 X142.94 Y140.749
G0 X142.525 Y141.889
